brandFactory_export/3.Masa/Cambiar mi clave wifi_3Masa.svg

<?xml version="1.0" encoding="UTF-8"?>
<svg width="24px" height="24px" viewBox="0 0 24 24" version="1.1" xmlns="http://www.w3.org/2000/svg" xmlns:xlink="http://www.w3.org/1999/xlink">
    <title>3.Masa/Cambiar mi clave wifi_3Masa</title>
    <g id="Symbols" stroke="none" stroke-width="1" fill="none" fill-rule="evenodd">
        <g id="3.Masa/Cambiar-mi-clave-wifi_3Masa" fill="#5CB615" fill-rule="nonzero">
            <path d="M20.0756303,12.4739496 C20.0588235,11.1831933 19.692437,10.1815126 18.9831933,9.50252101 C18.297479,8.84705882 17.3226891,8.51428571 16.0823529,8.51428571 L7.08403361,8.51428571 L7.08403361,5.35462185 C7.08403361,3.08907563 9.03697479,1.24369748 11.4403361,1.24369748 L11.6621849,1.24369748 C14.0621849,1.24369748 16.0184874,3.08907563 16.0184874,5.35462185 C16.0084034,5.69747899 16.2773109,5.98655462 16.6201681,5.99663866 C16.9630252,6.00672269 17.2521008,5.73781513 17.2621849,5.39495798 L17.2621849,5.35462185 C17.2621849,2.40336134 14.7512605,0 11.6621849,0 L11.4403361,0 C8.3512605,0 5.84033613,2.40336134 5.84033613,5.35798319 L5.84033613,8.62857143 C5.13445378,8.77647059 4.54957983,9.06890756 4.09243697,9.5092437 C3.38319328,10.1915966 3.02352941,11.1932773 3.02352941,12.487395 L3.02352941,12.5310924 C3.02352941,12.5613445 3.02352941,12.6319328 3.02689076,12.810084 L3.02352941,19.5932773 C3.02352941,20.887395 3.38319328,21.8890756 4.09243697,22.5714286 C4.77478992,23.2302521 5.74957983,23.5630252 6.99327731,23.5630252 L16.0857143,23.5630252 C17.3260504,23.5630252 18.3008403,23.2302521 18.9865546,22.5747899 C19.6957983,21.892437 20.0655462,20.8941176 20.0789916,19.6033613 L20.0789916,12.4806723 C20.0756303,12.4806723 20.0756303,12.4773109 20.0756303,12.4739496 L20.0756303,12.4739496 Z M12.1495798,20.5747899 C12.0084034,20.7159664 11.8033613,20.7865546 11.5478992,20.7865546 C11.292437,20.7865546 11.087395,20.7193277 10.9462185,20.5747899 C10.8151261,20.4436975 10.7445378,20.2487395 10.7445378,19.9865546 C10.7445378,19.4420168 11.0605042,19.189916 11.5478992,19.189916 C12.0352941,19.189916 12.3512605,19.4420168 12.3512605,19.9865546 C12.3546218,20.2487395 12.2806723,20.4436975 12.1495798,20.5747899 Z M15.302521,18.605042 C15.0571429,18.8436975 14.6605042,18.8369748 14.4218487,18.5915966 C13.8067227,17.9563025 12.8420168,17.6336134 11.5546218,17.6336134 C10.2672269,17.6336134 9.29579832,17.9563025 8.68067227,18.594958 C8.44201681,18.8436975 8.0487395,18.8504202 7.8,18.6117647 C7.5512605,18.3731092 7.54453782,17.9798319 7.78319328,17.7310924 C8.64369748,16.8403361 9.91092437,16.3865546 11.5512605,16.3865546 C13.1882353,16.3865546 14.4521008,16.8369748 15.312605,17.7210084 C15.5546218,17.9697479 15.5512605,18.3630252 15.302521,18.605042 C15.302521,18.6016807 15.302521,18.6016807 15.302521,18.605042 L15.302521,18.605042 Z M17.0201681,15.8890756 C16.7747899,16.1277311 16.3781513,16.1210084 16.1394958,15.8756303 C15.1411765,14.8470588 13.5983193,14.3260504 11.5546218,14.3260504 C9.50420168,14.3260504 7.95798319,14.8504202 6.96302521,15.8857143 C6.72436975,16.1344538 6.33109244,16.1411765 6.08235294,15.902521 C5.83361345,15.6638655 5.82689076,15.2705882 6.06554622,15.0218487 C7.30588235,13.7344538 9.15462185,13.0823529 11.5546218,13.0823529 C13.9478992,13.0823529 15.789916,13.7310924 17.0302521,15.0084034 C17.2722689,15.2537815 17.2655462,15.6504202 17.0201681,15.8890756 Z" id="Cambiar-mi-clave-wifi_3Masa"></path>
        </g>
    </g>
</svg>

<svg width="24" height="24" viewBox="0 0 24 24" xmlns="http://www.w3.org/2000/svg"><path d="M20.076 12.474c-.017-1.29-.384-2.292-1.093-2.971-.686-.656-1.66-.989-2.9-.989H7.083v-3.16c0-2.265 1.953-4.11 4.356-4.11h.222c2.4 0 4.356 1.845 4.356 4.11a.623.623 0 001.244.041v-.04c0-2.952-2.51-5.355-5.6-5.355h-.222c-3.089 0-5.6 2.403-5.6 5.358v3.27c-.706.148-1.29.44-1.748.881-.709.683-1.068 1.684-1.068 2.978v.044c0 .03 0 .1.003.28l-.003 6.782c0 1.294.36 2.296 1.068 2.978.683.66 1.658.992 2.901.992h9.093c1.24 0 2.215-.333 2.9-.988.71-.683 1.08-1.68 1.093-2.972v-7.122c-.003 0-.003-.004-.003-.007zm-7.926 8.1c-.142.142-.347.213-.602.213-.256 0-.46-.068-.602-.212-.13-.131-.201-.326-.201-.588 0-.545.316-.797.803-.797.487 0 .803.252.803.797.004.262-.07.457-.201.588zm3.153-1.969a.625.625 0 01-.881-.013c-.615-.636-1.58-.958-2.867-.958-1.288 0-2.26.322-2.874.961a.622.622 0 11-.898-.864c.86-.89 2.128-1.344 3.768-1.344 1.637 0 2.901.45 3.762 1.334a.623.623 0 01-.01.884c0-.003 0-.003 0 0zm1.717-2.716a.625.625 0 01-.88-.013c-.999-1.029-2.542-1.55-4.585-1.55-2.05 0-3.597.524-4.592 1.56a.622.622 0 11-.897-.864c1.24-1.288 3.089-1.94 5.489-1.94 2.393 0 4.235.65 5.475 1.926a.622.622 0 01-.01.881z" fill="#5CB615" fill-rule="nonzero"/></svg>
